svg/u1f468_1f3fc_200d_1f3a8.svg

<svg viewBox="0 0 128 128" xmlns="http://www.w3.org/2000/svg">
  <g id="shirt_1_">
    <linearGradient id="SVGID_1_" gradientTransform="matrix(1 0 0 -1 0 128)" gradientUnits="userSpaceOnUse" x1="4.115" x2="108.115" y1="18.252" y2="18.252">
      <stop offset="5.160877e-04" stop-color="#E3E3E3"/>
      <stop offset="1" stop-color="#C9C9C9"/>
    </linearGradient>
    <path d="M56.25,95.63c-0.04,0-0.09,0-0.13,0c-25.49,0.03-52,7.28-52,25.06v3.18h1.5h1.5h98h1.5h1.5 v-3.18C108.11,103.93,81.85,95.63,56.25,95.63z" fill="url(#SVGID_1_)"/>
  </g>
  <path id="neck" d="M65.19,90.08H47.03v9.98c0,4.51,3.7,8.17,8.26,8.17h1.65c4.56,0,8.26-3.66,8.26-8.17v-9.98 H65.19z" fill="#C48E6A"/>
  <g id="scarf_1_">
    <linearGradient id="SVGID_2_" gradientTransform="matrix(1 0 0 -1 0 128)" gradientUnits="userSpaceOnUse" x1="67.6066" x2="64.0823" y1="36.4242" y2="21.7396">
      <stop offset="0" stop-color="#0053AB"/>
      <stop offset="0.3617" stop-color="#0068BF"/>
      <stop offset="0.9995" stop-color="#008EE3"/>
    </linearGradient>
    <path d="M71.54,95.11c1.45,2.18,1.64,7.04-2.61,11.15c-2.49,2.4-6.74,2.73-10.03,2.64 c-0.67-0.02-1.44-0.16-1.76-0.81c-0.36-0.73,0.11-1.68,0.76-2.1c0.65-0.42,1.42-0.51,2.14-0.75c1.51-0.51,3.9-3.31,4.46-7.46 c0.36-2.67,0.13-3.89,0.19-4.74C64.73,92.37,70.44,93.46,71.54,95.11z" fill="url(#SVGID_2_)"/>
    <linearGradient id="SVGID_3_" gradientTransform="matrix(1 0 0 -1 0 128)" gradientUnits="userSpaceOnUse" x1="38.4308" x2="59.1068" y1="31.7455" y2="17.7825">
      <stop offset="5.160877e-04" stop-color="#008EE3"/>
      <stop offset="1" stop-color="#0053AB"/>
    </linearGradient>
    <path d="M41.35,106.57c5.15,3.8,11.58,5.17,17.75,3.6c0.85-0.22,1.86-0.68,1.91-1.56 c0.06-1.18-1.55-2.4-2.7-2.57c-2.95-0.44-6.33-1.94-8.23-4.25c-1.68-2.05-2.43-3.61-2.37-7.37c0.02-1.47-6.69-0.18-8.4,0.71 C36.73,96.46,35.37,102.15,41.35,106.57z" fill="url(#SVGID_3_)"/>
    <linearGradient id="SVGID_4_" gradientTransform="matrix(0.812 -7.600000e-03 7.600000e-03 -0.8119 317.5721 146.4201)" gradientUnits="userSpaceOnUse" x1="-317.7994" x2="-317.7994" y1="47.3889" y2="32.5898">
      <stop offset="0" stop-color="#0053AB"/>
      <stop offset="0.9995" stop-color="#008EE3"/>
    </linearGradient>
    <path d="M56.89,113.45c0.19,4.44,2.5,5.89,1.14,9.45c2.23-1.42,3.77-3.82,4.41-6.39 s0.41-5.3-0.38-7.8c-0.22-0.71-0.51-1.44-1.07-1.93C58.25,104.38,56.82,111.78,56.89,113.45z" fill="url(#SVGID_4_)"/>
    <linearGradient id="SVGID_5_" gradientTransform="matrix(1 0 0 -1 0 128)" gradientUnits="userSpaceOnUse" x1="62.8401" x2="72.1137" y1="20.5715" y2="14.2547">
      <stop offset="0" stop-color="#0053AB"/>
      <stop offset="0.9995" stop-color="#008EE3"/>
    </linearGradient>
    <path d="M65.92,113.99c4.41,1.9,6.73,0.39,9.61,4.98c0.22-3.24-1.03-6.5-3.11-8.97 s-4.96-4.2-8.02-5.19c-0.88-0.28-1.81-0.51-2.71-0.3C57.29,105.54,61.95,112.28,65.92,113.99z" fill="url(#SVGID_5_)"/>
    <ellipse cx="59.41" cy="107.35" fill="#1565C0" rx="5.3" ry="3.35" transform="matrix(0.9787 -0.2052 0.2052 0.9787 -20.764 14.475)"/>
  </g>
  <g id="face">
    <path id="ears" d="M83.44,50.43H28.79c-5.89,0-10.71,5.14-10.71,11.41c0,6.28,4.82,11.41,10.71,11.41h54.65 c5.89,0,10.71-5.14,10.71-11.41S89.33,50.43,83.44,50.43z" fill="#C48E6A"/>
    <path id="head" d="M56.11,11.07c-17.4,0-33.52,18.61-33.52,45.39c0,26.64,16.61,39.81,33.52,39.81 S89.63,83.1,89.63,56.46C89.63,29.68,73.52,11.07,56.11,11.07z" fill="#E0BB95"/>
    <g id="eyes">
      <ellipse cx="39.68" cy="58.81" fill="#5D4037" rx="4.93" ry="5.1"/>
      <ellipse cx="72.55" cy="58.81" fill="#5D4037" rx="4.93" ry="5.1"/>
    </g>
    <path id="nose" d="M59.97,68.06c-0.11-0.04-0.21-0.07-0.32-0.08h-7.07c-0.11,0.01-0.22,0.04-0.32,0.08 c-0.64,0.26-0.99,0.92-0.69,1.63s1.71,2.69,4.55,2.69s4.25-1.99,4.55-2.69C60.97,68.98,60.61,68.32,59.97,68.06z" fill="#C48E6A"/>
    <path id="mouth" d="M64.64,76.14c-3.19,1.89-13.63,1.89-16.81,0c-1.83-1.09-3.7,0.58-2.94,2.24 c0.75,1.63,6.45,5.42,11.37,5.42s10.55-3.79,11.3-5.42C68.32,76.72,66.47,75.05,64.64,76.14z" fill="#6D4C41"/>
  </g>
  <g id="paint_x5F_gear">
    <path d="M109.33,66.75l-3.58,12.62l1.03,0.23c1.1,0.25,2.09,0.69,3.05,1.11c0.35,0.15,0.69,0.3,1.02,0.44 l1.01,0.41l3.96-12.9L109.33,66.75z" fill="#A7A9AC"/>
    <path d="M111.61,79.3c-0.32-0.13-0.64-0.27-0.97-0.42c-1-0.44-2.13-0.94-3.42-1.23l-0.93-0.21l-13.13,46.33 h5.73l13.56-44.13L111.61,79.3z" fill="#603913"/>
    <g>
      <linearGradient id="SVGID_6_" gradientTransform="matrix(1 0 0 -1 0 128)" gradientUnits="userSpaceOnUse" x1="100.3403" x2="99.7822" y1="39.0592" y2="-6.4291">
        <stop offset="1.800000e-03" stop-color="#FFDBB5"/>
        <stop offset="1" stop-color="#A97C50"/>
      </linearGradient>
      <path d="M105.54,89.04c-3.07,0-6.43,0.67-10.01,2.14c-7.87,3.25-13.02,10.14-16.36,17.53 c-1.7,3.78-2.55,7.49-2.93,11.46c-0.12,1.22-0.14,2.42-0.03,3.7h0.98h0.98h38.76h1.18h1.14 C129.62,107.15,121.53,89.04,105.54,89.04z" fill="url(#SVGID_6_)"/>
    </g>
    <path d="M98.95,98.97c-0.34-1.75-1.85-3.31-3.67-3.43c-2.08-0.14-3.15,1.66-3.67,3.41 c-0.52,1.75-0.55,3.76,0.65,5.25c1.32,1.64,3.72,1.57,5.01-0.04c0.47-0.58,0.82-1.32,1.04-2.1 C98.94,101.2,99.17,100.07,98.95,98.97z" fill="#00AEEF"/>
    <path d="M110.32,93.88c-1.73-1.12-4.33-0.09-5.85,0.97c-1.71,1.18-2.96,3.48-2.02,5.54 c0.93,2.02,3.41,2.62,5.36,1.83c1.71-0.7,3.65-2.57,3.6-4.53C111.9,96.3,111.76,94.8,110.32,93.88z" fill="#00C853"/>
    <path d="M115.48,103.17c-1.68-0.09-3.47,0.7-4.76,1.74c-1.41,1.13-2.4,2.84-1.49,4.61 c0.84,1.61,2.79,2.18,4.48,1.99c1.59-0.17,3.12-1.09,4-2.43c0.32-0.48,0.54-1.05,0.59-1.62c0.12-0.31,0.22-0.64,0.26-1 C118.8,104.56,117.26,103.27,115.48,103.17z" fill="#FFF200"/>
    <path d="M111.88,116.49c-0.81-1.25-2.38-1.71-3.78-1.98c-1.61-0.31-3.49-0.16-4.75,1.03 c-1.48,1.39-1.19,3.58,0.46,4.67c0.34,0.22,0.74,0.41,1.17,0.57c1.48,1.12,3.4,0.79,5.02,0.19c1.25-0.47,2.28-1.57,2.34-2.85 c0-0.02,0.01-0.03,0.01-0.05C112.43,117.39,112.23,116.86,111.88,116.49z" fill="#EF4136"/>
    <path d="M119.5,68.16c-0.15,0.55-0.39,1.08-0.73,1.68c-0.16,0.28-0.34,0.55-0.53,0.8 c-1.39,1.84-3.51,2.91-5.66,2.91c-0.68,0-1.35-0.1-2.01-0.32c-2.32-0.77-3.9-2.5-4.39-4.75c-0.09-0.37-0.14-0.75-0.16-1.15 c-0.07-1.15,0.19-2.38,0.78-3.77c0.52-1.22,1.24-2.29,1.93-3.33c0.52-0.79,1.01-1.54,1.43-2.33c0.32-0.64,1.48-3.35,1.94-4.86 c0.17-0.54,0.61-0.94,1.16-1.04c0.55-0.11,1.12,0.09,1.47,0.53l0.04,0.04C117.32,55.72,121.59,60.97,119.5,68.16z" fill="#00AEEF"/>
    <path d="M118.24,70.64c-1.39,1.84-3.51,2.91-5.66,2.91c-0.68,0-1.35-0.1-2.01-0.32 c-2.32-0.77-3.9-2.5-4.39-4.75c4.21,2.72,4.77-5.36,9.23-5.3C119.28,63.23,115.44,69.75,118.24,70.64z" fill="#D1D3D4"/>
  </g>
  <g id="hairGroup">
    <path id="hair_7_" d="M56.24,4.03L56.24,4.03c-0.01,0-0.01,0-0.02,0s-0.01,0-0.02,0l0,0 C10.77,4.27,20.08,56.17,20.08,56.17s2.04,5.35,2.97,7.71c0.13,0.34,0.63,0.3,0.71-0.05c0.97-4.34,4.46-19.73,6.22-24.41 c1.04-2.76,3.9-4.36,6.8-3.83c4.45,0.81,11.55,1.81,19.37,1.81c0.03,0,0.06,0,0.08,0s0.06,0,0.08,0c7.82,0,14.92-1,19.37-1.81 c2.9-0.53,5.76,1.08,6.79,3.83c1.75,4.66,5.22,19.96,6.2,24.36c0.08,0.36,0.58,0.39,0.71,0.05l2.98-7.67 C92.37,56.17,101.68,4.27,56.24,4.03z" fill="#AB872F"/>
    <radialGradient id="hairHighlights_1_" cx="56.2265" cy="80.9011" gradientTransform="matrix(1 0 0 -1.1282 0 138.3704)" gradientUnits="userSpaceOnUse" r="38.0925">
      <stop offset="0.7945" stop-color="#BFA055" stop-opacity="0"/>
      <stop offset="1" stop-color="#BFA055"/>
    </radialGradient>
    <path id="hairHighlights" d="M92.37,56.17c0,0,9.31-51.9-36.13-52.14v0 c-0.01,0-0.01,0-0.02,0h0c-0.01,0-0.01,0-0.02,0l0,0c-0.71,0-1.4,0.02-2.08,0.05c-1.35,0.06-2.66,0.16-3.92,0.31 c-0.01,0-0.03,0-0.04,0C50.09,4.41,50,4.42,49.91,4.43C11.67,9.24,20.08,56.17,20.08,56.17l2.98,7.68c0.13,0.34,0.62,0.31,0.7-0.05 c0.98-4.39,4.46-19.71,6.22-24.37c1.04-2.76,3.9-4.36,6.8-3.83c4.45,0.81,11.55,1.81,19.37,1.81c0.03,0,0.06,0,0.08,0 s0.06,0,0.08,0c7.82,0,14.92-1,19.37-1.81c2.9-0.53,5.76,1.08,6.79,3.83c1.76,4.68,5.25,20.1,6.21,24.42 c0.08,0.36,0.57,0.39,0.7,0.05C90.32,61.54,92.37,56.17,92.37,56.17z" fill="url(#hairHighlights_1_)"/>
  </g>
  <g id="eyebrows_1_">
    <path d="M32.12,50.74c2.99-4.23,9.78-4.63,13.67-1.48c0.62,0.5,1.44,1.2,1.68,1.98 c0.4,1.27-0.82,2.26-2.01,1.96C44.7,53,44,52.6,43.24,52.36c-1.37-0.43-2.36-0.55-3.59-0.55c-1.82-0.01-2.99,0.22-4.72,0.92 c-0.71,0.29-1.29,0.75-2.1,0.41C31.9,52.76,31.56,51.58,32.12,50.74z" fill="#AB872F"/>
    <path d="M78.18,53.14c-0.29-0.13-0.57-0.29-0.86-0.41c-1.78-0.74-2.79-0.93-4.72-0.92 c-1.7,0.01-2.71,0.24-4.04,0.69c-0.81,0.28-1.84,0.98-2.74,0.71c-1.32-0.4-1.28-1.84-0.56-2.76c0.86-1.08,2.04-1.9,3.29-2.44 c2.9-1.26,6.44-1.08,9.17,0.55c0.89,0.53,1.86,1.26,2.4,2.18C80.9,52.04,79.72,53.77,78.18,53.14z" fill="#AB872F"/>
  </g>
</svg>

<svg viewBox="0 0 128 128" xmlns="http://www.w3.org/2000/svg">
  <defs>
    <linearGradient id="SVGID_1_" gradientTransform="matrix(1 0 0 -1 0 0)" gradientUnits="userSpaceOnUse" x1="4.115" x2="108.115" y1="-109.748" y2="-109.748">
      <stop offset="5.160877e-04" stop-color="#E3E3E3"/>
      <stop offset="1" stop-color="#C9C9C9"/>
    </linearGradient>
    <linearGradient id="SVGID_2_" gradientTransform="matrix(1 0 0 -1 0 0)" gradientUnits="userSpaceOnUse" x1="67.6066" x2="64.0823" y1="-91.5758" y2="-106.2604">
      <stop offset="0" stop-color="#0053AB"/>
      <stop offset="0.3617" stop-color="#0068BF"/>
      <stop offset="0.9995" stop-color="#008EE3"/>
    </linearGradient>
    <linearGradient id="SVGID_3_" gradientTransform="matrix(1 0 0 -1 0 0)" gradientUnits="userSpaceOnUse" x1="38.4308" x2="59.1068" y1="-96.2545" y2="-110.2175">
      <stop offset="5.160877e-04" stop-color="#008EE3"/>
      <stop offset="1" stop-color="#0053AB"/>
    </linearGradient>
    <linearGradient id="SVGID_4_" gradientTransform="matrix(0.812 -0.0076 0.0076 -0.8119 0 0)" gradientUnits="userSpaceOnUse" x1="75.021597" x2="75.021597" y1="-136.630732" y2="-151.429832">
      <stop offset="0" stop-color="#0053AB"/>
      <stop offset="0.9995" stop-color="#008EE3"/>
    </linearGradient>
    <linearGradient id="SVGID_5_" gradientTransform="matrix(1 0 0 -1 0 0)" gradientUnits="userSpaceOnUse" x1="62.8401" x2="72.1137" y1="-107.4285" y2="-113.7453">
      <stop offset="0" stop-color="#0053AB"/>
      <stop offset="0.9995" stop-color="#008EE3"/>
    </linearGradient>
    <radialGradient id="hairHighlights_1_" cx="56.2265" cy="-41.745948" gradientTransform="matrix(1 0 0 -1.1282 0 0)" gradientUnits="userSpaceOnUse" r="38.0925">
      <stop offset="0.7945" stop-color="#BFA055" stop-opacity="0"/>
      <stop offset="1" stop-color="#BFA055"/>
    </radialGradient>
    <linearGradient id="SVGID_6_" gradientTransform="matrix(1 0 0 -1 0 0)" gradientUnits="userSpaceOnUse" x1="100.3403" x2="99.7822" y1="-88.9408" y2="-134.4291">
      <stop offset="1.800000e-03" stop-color="#FFDBB5"/>
      <stop offset="1" stop-color="#A97C50"/>
    </linearGradient>
  </defs>
  <path d="M56.25,95.63 C56.21,95.63 56.16,95.63 56.12,95.63 C30.63,95.66 4.12,102.91 4.12,120.69 L4.12,123.87 L5.62,123.87 L7.12,123.87 L105.12,123.87 L106.62,123.87 L108.12,123.87 L108.12,120.69 C108.11,103.93 81.85,95.63 56.25,95.63 Z" fill="url(#SVGID_1_)"/>
  <path id="neck" d="M65.19,90.08 L47.03,90.08 L47.03,100.06 C47.03,104.57 50.73,108.23 55.29,108.23 L56.94,108.23 C61.5,108.23 65.2,104.57 65.2,100.06 L65.2,90.08 L65.19,90.08 Z" fill="#C48E6A"/>
  <path d="M71.54,95.11 C72.99,97.29 73.18,102.15 68.93,106.26 C66.44,108.66 62.19,108.99 58.9,108.9 C58.23,108.88 57.46,108.74 57.14,108.09 C56.78,107.36 57.25,106.41 57.9,105.99 C58.55,105.57 59.32,105.48 60.04,105.24 C61.55,104.73 63.94,101.93 64.5,97.78 C64.86,95.11 64.63,93.89 64.69,93.04 C64.73,92.37 70.44,93.46 71.54,95.11 Z" fill="url(#SVGID_2_)"/>
  <path d="M41.35,106.57 C46.5,110.37 52.93,111.74 59.1,110.17 C59.95,109.95 60.96,109.49 61.01,108.61 C61.07,107.43 59.46,106.21 58.31,106.04 C55.36,105.6 51.98,104.1 50.08,101.79 C48.4,99.74 47.65,98.18 47.71,94.42 C47.73,92.95 41.02,94.24 39.31,95.13 C36.73,96.46 35.37,102.15 41.35,106.57 Z" fill="url(#SVGID_3_)"/>
  <path d="M56.89,113.45 C57.08,117.89 59.39,119.34 58.03,122.9 C60.26,121.48 61.8,119.08 62.44,116.51 C63.08,113.94 62.85,111.21 62.06,108.71 C61.84,108 61.55,107.27 60.99,106.78 C58.25,104.38 56.82,111.78 56.89,113.45 Z" fill="url(#SVGID_4_)"/>
  <path d="M65.92,113.99 C70.33,115.89 72.65,114.38 75.53,118.97 C75.75,115.73 74.5,112.47 72.42,110 C70.34,107.53 67.46,105.8 64.4,104.81 C63.52,104.53 62.59,104.3 61.69,104.51 C57.29,105.54 61.95,112.28 65.92,113.99 Z" fill="url(#SVGID_5_)"/>
  <path d="M64.596,106.26 C64.976,108.071 62.961,110.026 60.096,110.626 C57.231,111.227 54.601,110.246 54.222,108.435 C53.842,106.624 55.857,104.67 58.721,104.069 C61.586,103.468 64.216,104.449 64.596,106.26 Z" fill="#1565C0"/>
  <path id="ears" d="M83.44,50.43 L28.79,50.43 C22.9,50.43 18.08,55.57 18.08,61.84 C18.08,68.12 22.9,73.25 28.79,73.25 L83.44,73.25 C89.33,73.25 94.15,68.11 94.15,61.84 C94.15,55.57 89.33,50.43 83.44,50.43 Z" fill="#C48E6A"/>
  <path id="head" d="M56.11,11.07 C38.71,11.07 22.59,29.68 22.59,56.46 C22.59,83.1 39.2,96.27 56.11,96.27 C73.02,96.27 89.63,83.1 89.63,56.46 C89.63,29.68 73.52,11.07 56.11,11.07 Z" fill="#E0BB95"/>
  <path d="M44.61,58.81 A4.93 5.1 0 1 1 34.75,58.81 A4.93 5.1 0 1 1 44.61,58.81 Z" fill="#5D4037"/>
  <path d="M77.48,58.81 A4.93 5.1 0 1 1 67.62,58.81 A4.93 5.1 0 1 1 77.48,58.81 Z" fill="#5D4037"/>
  <path id="nose" d="M59.97,68.06 C59.86,68.02 59.76,67.99 59.65,67.98 L52.58,67.98 C52.47,67.99 52.36,68.02 52.26,68.06 C51.62,68.32 51.27,68.98 51.57,69.69 C51.87,70.4 53.28,72.38 56.12,72.38 C58.96,72.38 60.37,70.39 60.67,69.69 C60.97,68.98 60.61,68.32 59.97,68.06 Z" fill="#C48E6A"/>
  <path id="mouth" d="M64.64,76.14 C61.45,78.03 51.01,78.03 47.83,76.14 C46,75.05 44.13,76.72 44.89,78.38 C45.64,80.01 51.34,83.8 56.26,83.8 C61.18,83.8 66.81,80.01 67.56,78.38 C68.32,76.72 66.47,75.05 64.64,76.14 Z" fill="#6D4C41"/>
  <path d="M109.33,66.75 L105.75,79.37 L106.78,79.6 C107.88,79.85 108.87,80.29 109.83,80.71 C110.18,80.86 110.52,81.01 110.85,81.15 L111.86,81.56 L115.82,68.66 L109.33,66.75 Z" fill="#A7A9AC"/>
  <path d="M111.61,79.3 C111.29,79.17 110.97,79.03 110.64,78.88 C109.64,78.44 108.51,77.94 107.22,77.65 L106.29,77.44 L93.16,123.77 L98.89,123.77 L112.45,79.64 L111.61,79.3 Z" fill="#603913"/>
  <path d="M105.54,89.04 C102.47,89.04 99.11,89.71 95.53,91.18 C87.66,94.43 82.51,101.32 79.17,108.71 C77.47,112.49 76.62,116.2 76.24,120.17 C76.12,121.39 76.1,122.59 76.21,123.87 L77.19,123.87 L78.17,123.87 L116.93,123.87 L118.11,123.87 L119.25,123.87 C129.62,107.15 121.53,89.04 105.54,89.04 Z" fill="url(#SVGID_6_)"/>
  <path d="M98.95,98.97 C98.61,97.22 97.1,95.66 95.28,95.54 C93.2,95.4 92.13,97.2 91.61,98.95 C91.09,100.7 91.06,102.71 92.26,104.2 C93.58,105.84 95.98,105.77 97.27,104.16 C97.74,103.58 98.09,102.84 98.31,102.06 C98.94,101.2 99.17,100.07 98.95,98.97 Z" fill="#00AEEF"/>
  <path d="M110.32,93.88 C108.59,92.76 105.99,93.79 104.47,94.85 C102.76,96.03 101.51,98.33 102.45,100.39 C103.38,102.41 105.86,103.01 107.81,102.22 C109.52,101.52 111.46,99.65 111.41,97.69 C111.9,96.3 111.76,94.8 110.32,93.88 Z" fill="#00C853"/>
  <path d="M115.48,103.17 C113.8,103.08 112.01,103.87 110.72,104.91 C109.31,106.04 108.32,107.75 109.23,109.52 C110.07,111.13 112.02,111.7 113.71,111.51 C115.3,111.34 116.83,110.42 117.71,109.08 C118.03,108.6 118.25,108.03 118.3,107.46 C118.42,107.15 118.52,106.82 118.56,106.46 C118.8,104.56 117.26,103.27 115.48,103.17 Z" fill="#FFF200"/>
  <path d="M111.88,116.49 C111.07,115.24 109.5,114.78 108.1,114.51 C106.49,114.2 104.61,114.35 103.35,115.54 C101.87,116.93 102.16,119.12 103.81,120.21 C104.15,120.43 104.55,120.62 104.98,120.78 C106.46,121.9 108.38,121.57 110,120.97 C111.25,120.5 112.28,119.4 112.34,118.12 C112.34,118.1 112.35,118.09 112.35,118.07 C112.43,117.39 112.23,116.86 111.88,116.49 Z" fill="#EF4136"/>
  <path d="M119.5,68.16 C119.35,68.71 119.11,69.24 118.77,69.84 C118.61,70.12 118.43,70.39 118.24,70.64 C116.85,72.48 114.73,73.55 112.58,73.55 C111.9,73.55 111.23,73.45 110.57,73.23 C108.25,72.46 106.67,70.73 106.18,68.48 C106.09,68.11 106.04,67.73 106.02,67.33 C105.95,66.18 106.21,64.95 106.8,63.56 C107.32,62.34 108.04,61.27 108.73,60.23 C109.25,59.44 109.74,58.69 110.16,57.9 C110.48,57.26 111.64,54.55 112.1,53.04 C112.27,52.5 112.71,52.1 113.26,52 C113.81,51.89 114.38,52.09 114.73,52.53 L114.77,52.57 C117.32,55.72 121.59,60.97 119.5,68.16 Z" fill="#00AEEF"/>
  <path d="M118.24,70.64 C116.85,72.48 114.73,73.55 112.58,73.55 C111.9,73.55 111.23,73.45 110.57,73.23 C108.25,72.46 106.67,70.73 106.18,68.48 C110.39,71.2 110.95,63.12 115.41,63.18 C119.28,63.23 115.44,69.75 118.24,70.64 Z" fill="#D1D3D4"/>
  <path id="hair_7_" d="M56.24,4.03 L56.24,4.03 C56.23,4.03 56.23,4.03 56.22,4.03 C56.21,4.03 56.21,4.03 56.2,4.03 L56.2,4.03 C10.77,4.27 20.08,56.17 20.08,56.17 C20.08,56.17 22.12,61.52 23.05,63.88 C23.18,64.22 23.68,64.18 23.76,63.83 C24.73,59.49 28.22,44.1 29.98,39.42 C31.02,36.66 33.88,35.06 36.78,35.59 C41.23,36.4 48.33,37.4 56.15,37.4 C56.18,37.4 56.21,37.4 56.23,37.4 C56.25,37.4 56.29,37.4 56.31,37.4 C64.13,37.4 71.23,36.4 75.68,35.59 C78.58,35.06 81.44,36.67 82.47,39.42 C84.22,44.08 87.69,59.38 88.67,63.78 C88.75,64.14 89.25,64.17 89.38,63.83 L92.36,56.16 C92.37,56.17 101.68,4.27 56.24,4.03 Z" fill="#AB872F"/>
  <path id="hairHighlights" d="M92.37,56.17 C92.37,56.17 101.68,4.27 56.24,4.03 L56.24,4.03 C56.23,4.03 56.23,4.03 56.22,4.03 L56.22,4.03 C56.21,4.03 56.21,4.03 56.2,4.03 L56.2,4.03 C55.49,4.03 54.8,4.05 54.12,4.08 C52.77,4.14 51.46,4.24 50.2,4.39 C50.19,4.39 50.17,4.39 50.16,4.39 C50.09,4.41 50,4.42 49.91,4.43 C11.67,9.24 20.08,56.17 20.08,56.17 L23.06,63.85 C23.19,64.19 23.68,64.16 23.76,63.8 C24.74,59.41 28.22,44.09 29.98,39.43 C31.02,36.67 33.88,35.07 36.78,35.6 C41.23,36.41 48.33,37.41 56.15,37.41 C56.18,37.41 56.21,37.41 56.23,37.41 C56.25,37.41 56.29,37.41 56.31,37.41 C64.13,37.41 71.23,36.41 75.68,35.6 C78.58,35.07 81.44,36.68 82.47,39.43 C84.23,44.11 87.72,59.53 88.68,63.85 C88.76,64.21 89.25,64.24 89.38,63.9 C90.32,61.54 92.37,56.17 92.37,56.17 Z" fill="url(#hairHighlights_1_)"/>
  <path d="M32.12,50.74 C35.11,46.51 41.9,46.11 45.79,49.26 C46.41,49.76 47.23,50.46 47.47,51.24 C47.87,52.51 46.65,53.5 45.46,53.2 C44.7,53 44,52.6 43.24,52.36 C41.87,51.93 40.88,51.81 39.65,51.81 C37.83,51.8 36.66,52.03 34.93,52.73 C34.22,53.02 33.64,53.48 32.83,53.14 C31.9,52.76 31.56,51.58 32.12,50.74 Z" fill="#AB872F"/>
  <path d="M78.18,53.14 C77.89,53.01 77.61,52.85 77.32,52.73 C75.54,51.99 74.53,51.8 72.6,51.81 C70.9,51.82 69.89,52.05 68.56,52.5 C67.75,52.78 66.72,53.48 65.82,53.21 C64.5,52.81 64.54,51.37 65.26,50.45 C66.12,49.37 67.3,48.55 68.55,48.01 C71.45,46.75 74.99,46.93 77.72,48.56 C78.61,49.09 79.58,49.82 80.12,50.74 C80.9,52.04 79.72,53.77 78.18,53.14 Z" fill="#AB872F"/>
</svg>
